X: 8
T:Banshee
T:McMahon's
R:Reel
M:C|
L:1/8
Q:1/2=112
K:G
|~G3D EDB,D|GFGB d2Bd|eged BAGA|BAGE EDB,D|
~G3D EDB,D|GFGB d2Bd|eged BAGA|BAGE EDD2:|
|:eaag efge|dBBA B2Bd|eB~B2 egfg|eBBA B2Bd|
eaag efge|dBBA B2Bd|eged BAGA|BAGE EDD2:|
